X:041
T:American Hornpipe
D:First of May by James Bryan
Z:Nigel Gatherer
M:4/4
L:1/8
K:D
FG|ABAG F2AF|G2Bc dAFD|GABA GFED|CDEF E2FG|ABAG F2AF|G2Bc dAFA|
dfeg (3fgf ec|dz dc d2::(3ABc|d2 d2 fedf|edef dAFA|dcde fgaf|
edef e2 (3ABc|dcde (3fgf df|edef dAFA|(3B=CB GB Age^c|d2 d2 d2:|
<end>
<start>
